img/gallery-icon.svg

<svg width="20" height="15" viewBox="0 0 20 15" fill="none" xmlns="http://www.w3.org/2000/svg">
<path fill-rule="evenodd" clip-rule="evenodd" d="M3.5 3V1C3.5 0.447715 3.94772 0 4.5 0H18.5C19.0523 0 19.5 0.447715 19.5 1V11C19.5 11.5523 19.0523 12 18.5 12H16.5V14C16.5 14.5523 16.0523 15 15.5 15H1.5C0.947715 15 0.5 14.5523 0.5 14V4C0.5 3.44772 0.947715 3 1.5 3H3.5ZM15.5 12H4.5C3.94772 12 3.5 11.5523 3.5 11V4H1.5V14H15.5V12ZM4.5 1V11H18.5V1H4.5ZM18.5 11H4.5V10L7.5 7L10.5 9L14.5 5L18.5 10V11ZM10 6C9.17157 6 8.5 5.32843 8.5 4.5C8.5 3.67157 9.17157 3 10 3C10.8284 3 11.5 3.67157 11.5 4.5C11.5 5.32843 10.8284 6 10 6Z" fill="white"/>
</svg>

<svg width="20" height="15" fill="none" xmlns="http://www.w3.org/2000/svg"><path fill-rule="evenodd" clip-rule="evenodd" d="M3.5 3V1a1 1 0 011-1h14a1 1 0 011 1v10a1 1 0 01-1 1h-2v2a1 1 0 01-1 1h-14a1 1 0 01-1-1V4a1 1 0 011-1h2zm12 9h-11a1 1 0 01-1-1V4h-2v10h14v-2zM4.5 1v10h14V1h-14zm14 10h-14v-1l3-3 3 2 4-4 4 5v1zM10 6a1.5 1.5 0 110-3 1.5 1.5 0 010 3z" fill="#fff"/></svg>
